Numix-GalliumOS/16/mimetypes/application-vnd.oasis.opendocument.chart.svg

<?xml version="1.0" encoding="UTF-8" standalone="no"?>
<svg
   xmlns:dc="http://purl.org/dc/elements/1.1/"
   xmlns:cc="http://creativecommons.org/ns#"
   xmlns:rdf="http://www.w3.org/1999/02/22-rdf-syntax-ns#"
   xmlns:svg="http://www.w3.org/2000/svg"
   xmlns="http://www.w3.org/2000/svg"
   xmlns:sodipodi="http://sodipodi.sourceforge.net/DTD/sodipodi-0.dtd"
   xmlns:inkscape="http://www.inkscape.org/namespaces/inkscape"
   width="16"
   height="16"
   viewBox="0 0 16 16"
   id="svg2"
   version="1.1"
   inkscape:version="0.48.5 r10040"
   sodipodi:docname="application-vnd.oasis.opendocument.chart.svg">
  <metadata
     id="metadata32">
    <rdf:RDF>
      <cc:Work
         rdf:about="">
        <dc:format>image/svg+xml</dc:format>
        <dc:type
           rdf:resource="http://purl.org/dc/dcmitype/StillImage" />
      </cc:Work>
    </rdf:RDF>
  </metadata>
  <defs
     id="defs30" />
  <sodipodi:namedview
     pagecolor="#ffffff"
     bordercolor="#666666"
     borderopacity="1"
     objecttolerance="10"
     gridtolerance="10"
     guidetolerance="10"
     inkscape:pageopacity="0"
     inkscape:pageshadow="2"
     inkscape:window-width="1280"
     inkscape:window-height="970"
     id="namedview28"
     showgrid="true"
     inkscape:zoom="32"
     inkscape:cx="12.256121"
     inkscape:cy="5.011644"
     inkscape:window-x="0"
     inkscape:window-y="0"
     inkscape:window-maximized="1"
     inkscape:current-layer="svg2">
    <inkscape:grid
       type="xygrid"
       id="grid3027" />
  </sodipodi:namedview>
  <path
     style="fill:#b8c300;fill-opacity:1"
     d="M 2.667969,-4.465e-4 C 2.324219,-4.465e-4 2,0.3378115 2,0.6964462 L 2,15.303108 C 2,15.641365 2.34375,16 2.667969,16 l 10.664062,0 C 13.65625,16 14,15.641365 14,15.303108 L 14,3.9995533 9.9999997,-4.465e-4 z"
     id="path4-9"
     inkscape:connector-curvature="0"
     sodipodi:nodetypes="ssssssccs" />
  <path
     style="fill:#000000;fill-opacity:0.19599998"
     d="m 10.583223,3.3315843 0.0154,0.01953 0.04005,-0.01953 z m 0.02978,0.667969 3.387,3.664062 0,-3.664062 z"
     id="path6"
     inkscape:connector-curvature="0"
     sodipodi:nodetypes="cccccccc" />
  <path
     style="fill:#ffffff;fill-opacity:0.39200003"
     d="m 9.9999997,-4.465e-4 3.9963963,3.9999998 -3.383784,0 c -0.299099,0 -0.6126123,-0.317117 -0.6126123,-0.616216 z"
     id="path8"
     inkscape:connector-curvature="0"
     sodipodi:nodetypes="ccssc" />
  <path
     style="fill:#ffffff"
     inkscape:connector-curvature="0"
     id="path14"
     d="m 9,11 0,-4 1,0 0,4 z"
     sodipodi:nodetypes="ccccc" />
  <path
     style="fill:#ffffff"
     inkscape:connector-curvature="0"
     id="path16"
     d="M 7,11 7,5 8,5 8,11 z"
     sodipodi:nodetypes="ccccc" />
  <path
     style="fill:#ffffff"
     inkscape:connector-curvature="0"
     id="path18"
     d="M 4,11 4,7 6,7 6,11 z"
     sodipodi:nodetypes="ccccc" />
  <path
     style="fill:#ffffff"
     inkscape:connector-curvature="0"
     id="path20"
     d="m 11,11 0,-2 1,0 0,2 z"
     sodipodi:nodetypes="ccccc" />
</svg>

<svg xmlns="http://www.w3.org/2000/svg" viewBox="0 0 16 16">
 <path d="m 2.668 0 c -0.344 0 -0.668 0.338 -0.668 0.697 l 0 14.607 c 0 0.338 0.344 0.697 0.668 0.697 l 10.664 0 c 0.324 0 0.668 -0.359 0.668 -0.697 l 0 -11.304 -4 -4 z" style="fill:#b8c300;fill-opacity:1"/>
 <path d="m 10.583 3.332 0.015 0.02 0.04 -0.02 z m 0.03 0.668 3.387 3.664 0 -3.664 z" style="fill:#000;fill-opacity:0.196"/>
 <path d="m 10 0 3.996 4 -3.384 0 c -0.299 0 -0.613 -0.317 -0.613 -0.616 z" style="fill:#fff;fill-opacity:0.392"/>
 <path d="m 9 11 0 -4 1 0 0 4 z" style="fill:#fff"/>
 <path d="m 7 11 0 -6 1 0 0 6 z" style="fill:#fff"/>
 <path d="m 4 11 0 -4 2 0 0 4 z" style="fill:#fff"/>
 <path d="m 11 11 0 -2 1 0 0 2 z" style="fill:#fff"/>
</svg>
